X:485
T:Ways of the World
C:
N:Transcribed by Tristan Scroggins Based on Bruce Molsky's version from "Contented Must Be"
R:bluegrass
L:1/8
Q:1/4=260
M:4/4
K:A
E2 A2 AB cA |: Bc BE GA BG | E2 AA AB cA | Bc BG A2 G/[A3/2A3/2] | zA AA AB cA | 
Bc BA GA BA | d3d ef ed | =c/^c3/2 A2 A2 [^D2G,2] |1 [E2A,2] A2 AB cA :|2 [E2A,2] aa ab a=g | 
=g2 d4 e[fB] | [=gB][fB] [gB][aB] [b2B2] (3[aB][bB][aB] | =gd dg [e/^d/]e2z/[ee] | 
[e2e2] [^D2G,2] | [E2A,2] aa ab a=g | =g2 d4 e[fB] | =ga ge dg ed |1 =c^c A4 [^D2G,2] :|2 =c^c A4 [AE]B | 
ce ef e2 dc | Bd BA GA BA | d3d ef ed | =c^c A4 AB | cd e2 [e2e2] ed | Bd BA GA Bc | 
dd dd ef ed | =c^c A2 A4 | 


